icons/Box2DCircleShape.svg

<svg height="16" viewBox="0 0 4.2333332 4.2333335" width="16" xmlns="http://www.w3.org/2000/svg"><path d="m8.0019531 1.0039062c-3.8539789-.0000001-6.9980467 3.1440683-6.9980469 6.9980469 0 3.1587249 2.1141792 5.8363689 4.9980469 6.7011719v-.699219-1.419922c-1.7703545-.767381-3.0058593-2.521673-3.0058593-4.5820309 0-2.7734385 2.2324201-5.0058595 5.0058593-5.0058593 2.7734389 0 4.9980469 2.2324208 4.9980469 5.0058593 0 .417282-.065166.8164181-.160156 1.203125.359999-.1213224.746509-.2070312 1.164062-.2070312.315368 0 .613973.0475576.898438.1191406.058985-.3644216.097656-.73462.097656-1.1152344 0-3.8539786-3.144068-6.9980468-6.9980469-6.9980469zm3.8124999 11.9960938c.013646.036861.030663.071754.042969.109375.045658-.037614.090721-.059574.138672-.109375z" fill="#68b6ff" fill-rule="evenodd" transform="scale(.26458333)"/><text stroke-width=".264583" x="2.660167" y=".388376"><tspan stroke-width=".264583" x="2.660167" y=".388376"/></text><path d="m2.1166667 1.984375v.2636719h1.5878906v-.2636719z" fill="#68b6ff"/><g fill="none" stroke="#68b6ff" stroke-linecap="square" stroke-width=".264583"><path d="m1.984375 2.6458333v1.4552083h.396875s.396875 0 .396875-.396875-.396875-.396875-.396875-.396875h-.396875"/><path d="m4.1010417 4.1010416h-.79375c0-.6614583.79375-.5291666.79375-1.0583333 0 0 0-.2645833-.396875-.2645833s-.396875.2645833-.396875.2645833"/></g></svg>

<?xml version="1.0" encoding="UTF-8" standalone="no"?>
<svg
   xmlns:dc="http://purl.org/dc/elements/1.1/"
   xmlns:cc="http://creativecommons.org/ns#"
   xmlns:rdf="http://www.w3.org/1999/02/22-rdf-syntax-ns#"
   xmlns:svg="http://www.w3.org/2000/svg"
   xmlns="http://www.w3.org/2000/svg"
   xmlns:sodipodi="http://sodipodi.sourceforge.net/DTD/sodipodi-0.dtd"
   xmlns:inkscape="http://www.inkscape.org/namespaces/inkscape"
   width="16"
   height="16"
   viewBox="0 0 4.2333332 4.2333335"
   version="1.1"
   id="svg8"
   inkscape:version="1.0.1 (3bc2e813f5, 2020-09-07)"
   sodipodi:docname="Box2DCircleShape.svg"
   inkscape:export-filename="C:\Users\brian\Documents\GitHub\mygodot4\modules\godot_box2d\icons\Box2DCircleShape.png"
   inkscape:export-xdpi="96"
   inkscape:export-ydpi="96">
  <defs
     id="defs2" />
  <sodipodi:namedview
     id="base"
     pagecolor="#ffffff"
     bordercolor="#666666"
     borderopacity="1.0"
     inkscape:pageopacity="0.0"
     inkscape:pageshadow="2"
     inkscape:zoom="45.254834"
     inkscape:cx="10.051252"
     inkscape:cy="11.326618"
     inkscape:document-units="px"
     inkscape:current-layer="layer1"
     inkscape:document-rotation="0"
     showgrid="false"
     units="px"
     inkscape:window-width="2378"
     inkscape:window-height="1407"
     inkscape:window-x="2619"
     inkscape:window-y="218"
     inkscape:window-maximized="0" />
  <metadata
     id="metadata5">
    <rdf:RDF>
      <cc:Work
         rdf:about="">
        <dc:format>image/svg+xml</dc:format>
        <dc:type
           rdf:resource="http://purl.org/dc/dcmitype/StillImage" />
        <dc:title></dc:title>
      </cc:Work>
    </rdf:RDF>
  </metadata>
  <g
     inkscape:label="Layer 1"
     inkscape:groupmode="layer"
     id="layer1">
    <path
       id="path854"
       style="color:#000000;font-style:normal;font-variant:normal;font-weight:normal;font-stretch:normal;font-size:medium;line-height:normal;font-family:sans-serif;font-variant-ligatures:normal;font-variant-position:normal;font-variant-caps:normal;font-variant-numeric:normal;font-variant-alternates:normal;font-variant-east-asian:normal;font-feature-settings:normal;font-variation-settings:normal;text-indent:0;text-align:start;text-decoration:none;text-decoration-line:none;text-decoration-style:solid;text-decoration-color:#000000;letter-spacing:normal;word-spacing:normal;text-transform:none;writing-mode:lr-tb;direction:ltr;text-orientation:mixed;dominant-baseline:auto;baseline-shift:baseline;text-anchor:start;white-space:normal;shape-padding:0;shape-margin:0;inline-size:0;clip-rule:nonzero;display:inline;overflow:visible;visibility:visible;isolation:auto;mix-blend-mode:normal;color-interpolation:sRGB;color-interpolation-filters:linearRGB;solid-color:#000000;solid-opacity:1;vector-effect:none;fill:#68b6ff;fill-opacity:1;fill-rule:evenodd;stroke:none;stroke-width:1.99937;stroke-linecap:butt;stroke-linejoin:miter;stroke-miterlimit:4;stroke-dasharray:none;stroke-dashoffset:0;stroke-opacity:1;color-rendering:auto;image-rendering:auto;shape-rendering:auto;text-rendering:auto;enable-background:accumulate;stop-color:#000000"
       d="M 8.0019531 1.0039062 C 4.1479742 1.0039061 1.0039064 4.1479745 1.0039062 8.0019531 C 1.0039062 11.160678 3.1180854 13.838322 6.0019531 14.703125 L 6.0019531 14.003906 L 6.0019531 12.583984 C 4.2315986 11.816603 2.9960938 10.062311 2.9960938 8.0019531 C 2.9960938 5.2285146 5.2285139 2.9960936 8.0019531 2.9960938 C 10.775392 2.9960938 13 5.2285146 13 8.0019531 C 13 8.4192351 12.934834 8.8183712 12.839844 9.2050781 C 13.199843 9.0837557 13.586353 8.9980469 14.003906 8.9980469 C 14.319274 8.9980469 14.617879 9.0456045 14.902344 9.1171875 C 14.961329 8.7527659 15 8.3825675 15 8.0019531 C 15 4.1479745 11.855932 1.0039063 8.0019531 1.0039062 z M 11.814453 13 C 11.828099 13.036861 11.845116 13.071754 11.857422 13.109375 C 11.90308 13.071761 11.948143 13.049801 11.996094 13 L 11.814453 13 z "
       transform="scale(0.26458333)" />
    <text
       xml:space="preserve"
       style="font-style:normal;font-weight:normal;font-size:10.5833px;line-height:1.25;font-family:sans-serif;fill:#000000;fill-opacity:1;stroke:none;stroke-width:0.264583"
       x="2.6601672"
       y="0.38837603"
       id="text874"><tspan
         sodipodi:role="line"
         id="tspan872"
         x="2.6601672"
         y="0.38837603"
         style="stroke-width:0.264583" /></text>
    <path
       style="color:#000000;font-style:normal;font-variant:normal;font-weight:normal;font-stretch:normal;font-size:medium;line-height:normal;font-family:sans-serif;font-variant-ligatures:normal;font-variant-position:normal;font-variant-caps:normal;font-variant-numeric:normal;font-variant-alternates:normal;font-variant-east-asian:normal;font-feature-settings:normal;font-variation-settings:normal;text-indent:0;text-align:start;text-decoration:none;text-decoration-line:none;text-decoration-style:solid;text-decoration-color:#000000;letter-spacing:normal;word-spacing:normal;text-transform:none;writing-mode:lr-tb;direction:ltr;text-orientation:mixed;dominant-baseline:auto;baseline-shift:baseline;text-anchor:start;white-space:normal;shape-padding:0;shape-margin:0;inline-size:0;clip-rule:nonzero;display:inline;overflow:visible;visibility:visible;opacity:1;isolation:auto;mix-blend-mode:normal;color-interpolation:sRGB;color-interpolation-filters:linearRGB;solid-color:#000000;solid-opacity:1;vector-effect:none;fill:#68b6ff;fill-opacity:1;fill-rule:nonzero;stroke:none;stroke-width:0.264583px;stroke-linecap:butt;stroke-linejoin:miter;stroke-miterlimit:4;stroke-dasharray:none;stroke-dashoffset:0;stroke-opacity:1;color-rendering:auto;image-rendering:auto;shape-rendering:auto;text-rendering:auto;enable-background:accumulate;stop-color:#000000;stop-opacity:1"
       d="M 2.1166667,1.984375 V 2.2480469 H 3.7045573 V 1.984375 Z"
       id="path858" />
    <path
       style="fill:none;stroke:#68b6ff;stroke-width:0.264583px;stroke-linecap:square;stroke-linejoin:miter;stroke-opacity:1"
       d="M 1.984375,2.6458333 V 4.1010416 H 2.38125 c 0,0 0.396875,0 0.396875,-0.396875 0,-0.396875 -0.396875,-0.396875 -0.396875,-0.396875 H 1.984375"
       id="path987"
       sodipodi:nodetypes="ccczcc" />
    <path
       style="fill:none;stroke:#68b6ff;stroke-width:0.264583px;stroke-linecap:square;stroke-linejoin:miter;stroke-opacity:1"
       d="m 4.1010417,4.1010416 h -0.79375 c 0,-0.6614583 0.79375,-0.5291666 0.79375,-1.0583333 0,0 0,-0.2645833 -0.396875,-0.2645833 -0.396875,0 -0.396875,0.2645833 -0.396875,0.2645833"
       id="path989"
       sodipodi:nodetypes="ccszc" />
  </g>
</svg>
